X:226
T:New Rigged Ship
R:reel
D:Dervish: The Boys of Sligo
D:Altan: Harvest Storm
Z:id:hn-reel-223
M:C|
K:Amix
~a3g ageg|a2bg agef|~g3e fgag|1 fdef defg:|2 f2d2 e3d||
|:~c3A B2ed|~c3A EFAB|~c3A B2ed|1 cAAG A2ed:|2 c2A2 A3B||
|:=c2ec BcdB|A=cBG AGEG|=c2ec BcdB|1 =cAAG A3B:|2 =c2A2 ABcd||
